archdroid-icon-theme/Archdroid-Cyan/actions/scalable/folder-new.svg

<svg xmlns="http://www.w3.org/2000/svg" fill="#00BCD4" viewBox="0 0 48 48"><path d="m8 8c-2.21 0-3.98 1.79-3.98 4l-.02 24c0 2.21 1.79 4 4 4h32c2.21 0 4-1.79 4-4v-20c0-2.21-1.79-4-4-4h-16l-4-4h-12m14 10h4v6h6v4h-6v6h-4v-6h-6v-4h6v-6"/></svg>

<?xml version="1.0" encoding="UTF-8" standalone="no"?>
<svg
   xmlns:dc="http://purl.org/dc/elements/1.1/"
   xmlns:cc="http://creativecommons.org/ns#"
   xmlns:rdf="http://www.w3.org/1999/02/22-rdf-syntax-ns#"
   xmlns:svg="http://www.w3.org/2000/svg"
   xmlns="http://www.w3.org/2000/svg"
   xmlns:sodipodi="http://sodipodi.sourceforge.net/DTD/sodipodi-0.dtd"
   xmlns:inkscape="http://www.inkscape.org/namespaces/inkscape"
   fill="#00BCD4"
   width="48"
   height="48"
   viewBox="0 0 48 48"
   id="svg2"
   version="1.1"
   inkscape:version="0.91 r13725"
   sodipodi:docname="folder-new.svg">
  <metadata
     id="metadata10">
    <rdf:RDF>
      <cc:Work
         rdf:about="">
        <dc:format>image/svg+xml</dc:format>
        <dc:type
           rdf:resource="http://purl.org/dc/dcmitype/StillImage" />
        <dc:title></dc:title>
      </cc:Work>
    </rdf:RDF>
  </metadata>
  <defs
     id="defs8" />
  <sodipodi:namedview
     pagecolor="#ffffff"
     bordercolor="#666666"
     borderopacity="1"
     objecttolerance="10"
     gridtolerance="10"
     guidetolerance="10"
     inkscape:pageopacity="0"
     inkscape:pageshadow="2"
     inkscape:window-width="1366"
     inkscape:window-height="713"
     id="namedview6"
     showgrid="false"
     inkscape:zoom="4"
     inkscape:cx="11.256819"
     inkscape:cy="10.282413"
     inkscape:window-x="0"
     inkscape:window-y="30"
     inkscape:window-maximized="1"
     inkscape:current-layer="svg2"
     inkscape:snap-bbox="true"
     inkscape:bbox-paths="true"
     inkscape:snap-bbox-edge-midpoints="false"
     inkscape:bbox-nodes="true" />
  <path
     d="M 8 8 C 5.79 8 4.0195312 9.79 4.0195312 12 L 4 36 C 4 38.21 5.79 40 8 40 L 40 40 C 42.21 40 44 38.21 44 36 L 44 16 C 44 13.79 42.21 12 40 12 L 24 12 L 20 8 L 8 8 z M 22 18 L 26 18 L 26 24 L 32 24 L 32 28 L 26 28 L 26 34 L 22 34 L 22 28 L 16 28 L 16 24 L 22 24 L 22 18 z "
     id="path3382" />
  <path
     d="m 79.186441,15.966102 -6,0 0,11 c 0,2.76 -2.24,5 -5,5 -2.76,0 -5,-2.24 -5,-5 0,-2.76 2.24,-5 5,-5 1.13,0 2.16,0.39 3,1.02 l 0,-11.02 8,0 0,4 z"
     id="path3340"
     inkscape:connector-curvature="0"
     style="fill:#ffffff;fill-opacity:1" />
</svg>
